Adwaita++/apps/16/teamspeak.svg

<svg height="16" width="16" xmlns="http://www.w3.org/2000/svg">
  <path d="m6.1386719.0078125c-.6668409.02410367-1.3425974.10860264-2.0195313.25390625-.4056512.08707281-.7043648.16613299-.9648437.28125-.260479.11511701-.4798834.27871071-.6464844.46875005-.165098.1883251-.3117991.4350175-.4199219.7792968s-.2091167.8135837-.3730468 1.6152344c-.1528512.7474726-.2382422 1.1067015-.296875 1.2304688-.0586329.1237672-.0800099.1239398-.3789063.3261718-.45460423.3075835-.79258134.7950028-.94726563 1.328125-.1602142.5521811-.1334571 1.214744.05078125 1.765625.11327785.3387057.31690393.6287074.640625.953125.36232278.3631012.64411618.5386596 1.08203128.671875.9786093.2976959 1.9980036.0479619 2.7167968-.6679687.3143438-.3130922.3494817-.7639462.46875-1.1738281.1877539.6003468.2458153 1.2490775.171875 1.9707031-.138719 1.3538421-.4388428 2.0455381-1.2226562 2.8730471l-.9746094 1.03125 1.1582032.199218h.00195c.060706.0102.1219533.02359.1699219.0332.047969.0096.1142991.02872.052734.0078.1199739.04075.1548325.0357.2167969.04102.061964.0053.1295972.0077.203125.0098.1470555.0042.3197538.0038.4960938 0 .1763399-.0038.3544393-.01094.5078124-.02148.1533732-.01055.2482487-.0082.4082032-.05273.2639291-.07341.4354414-.170676.6210937-.404297.078664-.099.1931408-.30527.2148438-.494141s.00532-.358941-.013672-.660156c-.018104-.287115-.017919-.444153-.013672-.484375.00425-.04022-.02908.04096.00977-.01367.062681-.08816.1443396-.144087.1757812-.384766.015237-.116638-.024087-.269957-.080078-.365234.053475-.06332.1184823-.09419.1445312-.179688.056026-.183893.02717-.309353.00781-.419921-.016919-.09665-.041805-.248313-.0625-.369141.021299-.0097.05353-.03803.2324219-.09766.1313053-.04376.2520095-.092705.359375-.1464846.053683-.02689.1029135-.053375.1582031-.091797.05529-.038422.1345762-.035292.2265625-.2753906.031912-.083293.050779-.273647.019531-.3925781-.031246-.1189601-.0743318-.1946345-.1289043-.2890915-.109145-.1889139-.2853832-.450555-.6152343-.9394531-.2567173-.3804998-.4349791-.6653997-.5410157-.8574219-.089252-.161627-.0899947-.2101124-.09375-.1660156.0217525-.0428651.0506386-.0961786.0820313-.1425781.1432015-.2115832.2630543-.4832425.2636718-.7734375.0006176-.290195-.0789633-.5545977-.2011718-.9199219-.5119512-1.5303981-1.4261118-2.8297936-2.5214844-3.4453125.022288-.00321.030865-.00664.054687-.00977.3007392-.039404.7207952-.072977 1.1972656-.089844 1.8755142-.066393 3.4754598.3351204 5.0390634 1.2558594 1.632224.9611478 2.636222 2.2518934 3.082031 3.9394532.200895.7604651.209188 2.006205.03125 2.6699218-.246277.918619-.692141 1.726723-1.357422 2.455078-.700117.766491-2.411075 1.86204-3.5488286 2.25-1.4412729.491456-3.3016564.588469-4.8457031.25-.2341313-.05132-.5857947-.127008-.78125-.169922-.2243132-.04925-.4383873-.06442-.6386719-.04687-.1001424.0088-.1954174.02059-.3164063.07226-.060494.02584-.1314224.06032-.2089844.140626-.077562.08031-.15625.230312-.15625.384765 0 .000526.015482.124438.015625.125.0001431.000563.020863.06779.033203.09375.024681.05192.050819.08387.072266.109375.042893.05101.073156.07388.097656.0918.049001.03584.078789.04913.109375.06445.061171.03065.1188259.05578.1875.08203.1373483.05251.3100928.109353.5039063.169922.3876271.121138.8471763.249595 1.1972656.322266.2980047.06186.7473981.129273 1.0605469.160156 3.1084989.306574 6.0291535-.554551 8.1464845-2.435547 2.516069-2.235222 3.240932-5.5656099 1.800782-8.4335931-.679945-1.3540704-2.074094-2.7785836-3.552735-3.6738225-1.638599-.99208523-3.5670821-1.4610102-5.5683591-1.3886719z" fill="#474747"/>
</svg>

<?xml version="1.0" encoding="UTF-8" standalone="no"?>
<svg
   xmlns:dc="http://purl.org/dc/elements/1.1/"
   xmlns:cc="http://creativecommons.org/ns#"
   xmlns:rdf="http://www.w3.org/1999/02/22-rdf-syntax-ns#"
   xmlns:svg="http://www.w3.org/2000/svg"
   xmlns="http://www.w3.org/2000/svg"
   xmlns:sodipodi="http://sodipodi.sourceforge.net/DTD/sodipodi-0.dtd"
   xmlns:inkscape="http://www.inkscape.org/namespaces/inkscape"
   width="16"
   height="16"
   version="1.1"
   id="svg8"
   sodipodi:docname="teamspeak.svg"
   inkscape:version="0.92.4 (5da689c313, 2019-01-14)">
  <metadata
     id="metadata14">
    <rdf:RDF>
      <cc:Work
         rdf:about="">
        <dc:format>image/svg+xml</dc:format>
        <dc:type
           rdf:resource="http://purl.org/dc/dcmitype/StillImage" />
      </cc:Work>
    </rdf:RDF>
  </metadata>
  <defs
     id="defs12" />
  <sodipodi:namedview
     pagecolor="#ffffff"
     bordercolor="#666666"
     borderopacity="1"
     objecttolerance="10"
     gridtolerance="10"
     guidetolerance="10"
     inkscape:pageopacity="0"
     inkscape:pageshadow="2"
     inkscape:window-width="1920"
     inkscape:window-height="1016"
     id="namedview10"
     showgrid="false"
     inkscape:zoom="52.438821"
     inkscape:cx="7.9895083"
     inkscape:cy="7.9996453"
     inkscape:window-x="0"
     inkscape:window-y="27"
     inkscape:window-maximized="1"
     inkscape:current-layer="svg8" />
  <path
     style="color:#000000;font-style:normal;font-variant:normal;font-weight:normal;font-stretch:normal;font-size:medium;line-height:normal;font-family:sans-serif;font-variant-ligatures:normal;font-variant-position:normal;font-variant-caps:normal;font-variant-numeric:normal;font-variant-alternates:normal;font-feature-settings:normal;text-indent:0;text-align:start;text-decoration:none;text-decoration-line:none;text-decoration-style:solid;text-decoration-color:#000000;letter-spacing:normal;word-spacing:normal;text-transform:none;writing-mode:lr-tb;direction:ltr;text-orientation:mixed;dominant-baseline:auto;baseline-shift:baseline;text-anchor:start;white-space:normal;shape-padding:0;clip-rule:nonzero;display:inline;overflow:visible;visibility:visible;opacity:1;isolation:auto;mix-blend-mode:normal;color-interpolation:sRGB;color-interpolation-filters:linearRGB;solid-color:#000000;solid-opacity:1;vector-effect:none;fill:#444444;fill-opacity:1;fill-rule:nonzero;stroke:none;stroke-width:1;stroke-linecap:butt;stroke-linejoin:miter;stroke-miterlimit:4;stroke-dasharray:none;stroke-dashoffset:0;stroke-opacity:1;color-rendering:auto;image-rendering:auto;shape-rendering:auto;text-rendering:auto;enable-background:accumulate"
     d="M 6.1386719,0.0078125 C 5.471831,0.03191617 4.7960745,0.11641514 4.1191406,0.26171875 3.7134894,0.34879156 3.4147758,0.42785174 3.1542969,0.54296875 2.8938179,0.65808576 2.6744135,0.82167946 2.5078125,1.0117188 2.3427145,1.2000439 2.1960134,1.4467363 2.0878906,1.7910156 1.9797678,2.1352949 1.8787739,2.6045993 1.7148438,3.40625 1.5619926,4.1537226 1.4766016,4.5129515 1.4179688,4.6367188 1.3593359,4.760486 1.3379589,4.7606586 1.0390625,4.9628906 0.58445827,5.2704741 0.24648116,5.7578934 0.09179687,6.2910156 c -0.1602142,0.5521811 -0.1334571,1.214744 0.05078125,1.765625 0.11327785,0.3387057 0.31690393,0.6287074 0.640625,0.953125 C 1.1455259,9.3728668 1.4273193,9.5484252 1.8652344,9.6816406 2.8438437,9.9793365 3.863238,9.7296025 4.5820312,9.0136719 4.896375,8.7005797 4.9315129,8.2497257 5.0507812,7.8398438 5.2385351,8.4401906 5.2965965,9.0889213 5.2226562,9.8105469 5.0839372,11.164389 4.7838134,11.856085 4,12.683594 l -0.9746094,1.03125 1.1582032,0.199218 h 0.00195 c 0.060706,0.0102 0.1219533,0.02359 0.1699219,0.0332 0.047969,0.0096 0.1142991,0.02872 0.052734,0.0078 0.1199739,0.04075 0.1548325,0.0357 0.2167969,0.04102 0.061964,0.0053 0.1295972,0.0077 0.203125,0.0098 0.1470555,0.0042 0.3197538,0.0038 0.4960938,0 0.1763399,-0.0038 0.3544393,-0.01094 0.5078124,-0.02148 0.1533732,-0.01055 0.2482487,-0.0082 0.4082032,-0.05273 0.2639291,-0.07341 0.4354414,-0.170676 0.6210937,-0.404297 0.078664,-0.099 0.1931408,-0.30527 0.2148438,-0.494141 0.021703,-0.188871 0.00532,-0.358941 -0.013672,-0.660156 -0.018104,-0.287115 -0.017919,-0.444153 -0.013672,-0.484375 0.00425,-0.04022 -0.02908,0.04096 0.00977,-0.01367 0.062681,-0.08816 0.1443396,-0.144087 0.1757812,-0.384766 0.015237,-0.116638 -0.024087,-0.269957 -0.080078,-0.365234 0.053475,-0.06332 0.1184823,-0.09419 0.1445312,-0.179688 0.056026,-0.183893 0.02717,-0.309353 0.00781,-0.419921 -0.016919,-0.09665 -0.041805,-0.248313 -0.0625,-0.369141 0.021299,-0.0097 0.05353,-0.03803 0.2324219,-0.09766 0.1313053,-0.04376 0.2520095,-0.092705 0.359375,-0.1464846 0.053683,-0.02689 0.1029135,-0.053375 0.1582031,-0.091797 0.05529,-0.038422 0.1345762,-0.035292 0.2265625,-0.2753906 0.031912,-0.083293 0.050779,-0.273647 0.019531,-0.3925781 C 8.2089864,9.0334126 8.1659006,8.9577382 8.1113281,8.8632812 8.0021831,8.6743673 7.8259449,8.4127262 7.4960938,7.9238281 7.2393765,7.5433283 7.0611147,7.2584284 6.9550781,7.0664062 6.8658261,6.9047792 6.8650834,6.8562938 6.8613281,6.9003906 6.8830806,6.8575255 6.9119667,6.804212 6.9433594,6.7578125 7.0865609,6.5462293 7.2064137,6.27457 7.2070312,5.984375 7.2076488,5.69418 7.1280679,5.4297773 7.0058594,5.0644531 6.4939082,3.534055 5.5797476,2.2346595 4.484375,1.6191406 c 0.022288,-0.00321 0.030865,-0.00664 0.054687,-0.00977 0.3007392,-0.039404 0.7207952,-0.072977 1.1972656,-0.089844 1.8755142,-0.066393 3.4754598,0.3351204 5.0390634,1.2558594 1.632224,0.9611478 2.636222,2.2518934 3.082031,3.9394532 0.200895,0.7604651 0.209188,2.006205 0.03125,2.6699218 -0.246277,0.918619 -0.692141,1.726723 -1.357422,2.455078 -0.700117,0.766491 -2.411075,1.86204 -3.5488286,2.25 -1.4412729,0.491456 -3.3016564,0.588469 -4.8457031,0.25 -0.2341313,-0.05132 -0.5857947,-0.127008 -0.78125,-0.169922 -0.2243132,-0.04925 -0.4383873,-0.06442 -0.6386719,-0.04687 -0.1001424,0.0088 -0.1954174,0.02059 -0.3164063,0.07226 -0.060494,0.02584 -0.1314224,0.06032 -0.2089844,0.140626 -0.077562,0.08031 -0.15625,0.230312 -0.15625,0.384765 0,5.26e-4 0.015482,0.124438 0.015625,0.125 1.431e-4,5.63e-4 0.020863,0.06779 0.033203,0.09375 0.024681,0.05192 0.050819,0.08387 0.072266,0.109375 0.042893,0.05101 0.073156,0.07388 0.097656,0.0918 0.049001,0.03584 0.078789,0.04913 0.109375,0.06445 0.061171,0.03065 0.1188259,0.05578 0.1875,0.08203 0.1373483,0.05251 0.3100928,0.109353 0.5039063,0.169922 0.3876271,0.121138 0.8471763,0.249595 1.1972656,0.322266 0.2980047,0.06186 0.7473981,0.129273 1.0605469,0.160156 C 8.4209984,16.246021 11.341653,15.384896 13.458984,13.5039 15.975053,11.268678 16.699916,7.9382901 15.259766,5.0703069 14.579821,3.7162365 13.185672,2.2917233 11.707031,1.3964844 10.068432,0.40439917 8.1399489,-0.0645258 6.1386719,0.0078125 Z"
     id="path2"
     inkscape:connector-curvature="0"
     sodipodi:nodetypes="sssssssssscsscscccccccsscccscccccccccccccscsccssccsssccscscccsccccccsccccss" />
  <g
     fill="#444"
     transform="matrix(0.04144749,0,0,0.04151064,-0.38867371,-0.15604351)"
     id="g6" />
</svg>
